src/smileys-emotion/face-concerned/1F623.svg

<svg id="emoji" viewBox="0 0 72 72" xmlns="http://www.w3.org/2000/svg">
  <g id="grid">
    <path fill="#b3b3b3" d="M68,4V68H4V4H68m4-4H0V72H72V0Z"/>
    <path fill="none" stroke="#00a5ff" stroke-miterlimit="10" stroke-width="0.1" d="M12.923,10.9583H59.0769A1.9231,1.9231,0,0,1,61,12.8814V59.0352a1.9231,1.9231,0,0,1-1.9231,1.9231H12.9231A1.9231,1.9231,0,0,1,11,59.0352V12.8813A1.923,1.923,0,0,1,12.923,10.9583Z"/>
    <rect x="16" y="4" rx="2.2537" width="40" height="64" fill="none" stroke="#00a5ff" stroke-miterlimit="10" stroke-width="0.1"/>
    <rect x="16" y="4" rx="2.2537" width="40" height="64" transform="translate(72) rotate(90)" fill="none" stroke="#00a5ff" stroke-miterlimit="10" stroke-width="0.1"/>
    <circle cx="36" cy="36" r="29" fill="none" stroke="#00a5ff" stroke-miterlimit="10" stroke-width="0.1"/>
  </g>
  <g id="color">
    <path fill="#fcea2b" stroke="none" d="M36.2002,13.3163c-12.5719,0-22.7998,10.2279-22.7998,22.7998c0,12.5718,10.2279,22.7998,22.7998,22.7998 C48.772,58.9159,59,48.6879,59,36.1161C59,23.5442,48.772,13.3163,36.2002,13.3163z"/>
    <path fill="#FFFFFF" stroke="none" d="M28,51c0.2704-0.3562,3.3099-8.2177,8.4211-8.0038C41.0265,43.1889,43.6499,50.5372,44,51 C38.6667,51,33.3333,51,28,51z"/>
  </g>
  <g id="hair"/>
  <g id="skin"/>
  <g id="skin-shadow"/>
  <g id="line">
    <circle cx="36" cy="36" r="23" fill="none" stroke="#000000" stroke-miterlimit="10" stroke-width="2"/>
    <line x1="44.5361" x2="50.9214" y1="21.4389" y2="24.7158" fill="none" stroke="#000000" stroke-linecap="round" stroke-linejoin="round" stroke-miterlimit="10" stroke-width="2"/>
    <line x1="26.9214" x2="20.5361" y1="21.4389" y2="24.7158" fill="none" stroke="#000000" stroke-linecap="round" stroke-linejoin="round" stroke-miterlimit="10" stroke-width="2"/>
    <path fill="none" stroke="#000000" stroke-linecap="round" stroke-linejoin="round" stroke-miterlimit="10" stroke-width="2" d="M24,28c2.3334,1.3333,4.6666,2.6667,7,4c-2.3334,1.3333-4.6666,2.6667-7,4"/>
    <path fill="none" stroke="#000000" stroke-linecap="round" stroke-linejoin="round" stroke-miterlimit="10" stroke-width="2" d="M48,28c-2.3334,1.3333-4.6666,2.6667-7,4c2.3334,1.3333,4.6666,2.6667,7,4"/>
    <path fill="none" stroke="#000000" stroke-linecap="round" stroke-linejoin="round" stroke-miterlimit="10" stroke-width="2" d="M28,51c0.2704-0.3562,1-8,8.4211-8.0038C43,42.9929,43.6499,50.5372,44,51C38.6667,51,33.3333,51,28,51z"/>
  </g>
</svg>

<svg viewBox="0 0 72 72" xmlns="http://www.w3.org/2000/svg"><path fill="#b3b3b3" d="M68 4v64H4V4h64m4-4H0v72h72V0z"/><path fill="none" stroke="#00a5ff" stroke-miterlimit="10" stroke-width=".1" d="M12.923 10.958h46.154A1.923 1.923 0 0161 12.881v46.154a1.923 1.923 0 01-1.923 1.923H12.923A1.923 1.923 0 0111 59.035V12.881a1.923 1.923 0 011.923-1.923z"/><rect x="16" y="4" rx="2.254" width="40" height="64" fill="none" stroke="#00a5ff" stroke-miterlimit="10" stroke-width=".1"/><rect x="16" y="4" rx="2.254" width="40" height="64" transform="rotate(90 36 36)" fill="none" stroke="#00a5ff" stroke-miterlimit="10" stroke-width=".1"/><circle cx="36" cy="36" r="29" fill="none" stroke="#00a5ff" stroke-miterlimit="10" stroke-width=".1"/><g stroke-linecap="round" stroke-miterlimit="10" stroke-width="6" stroke="#fff" fill="none" stroke-linejoin="round"><circle cx="36" cy="36" r="23"/><path d="M44.536 21.439l6.385 3.277m-24-3.277l-6.385 3.277M24 28l7 4-7 4m24-8l-7 4 7 4M28 51c.27-.356 1-8 8.421-8.004C43 42.993 43.65 50.537 44 51H28z"/></g><path fill="#fcea2b" d="M36.2 13.316c-12.572 0-22.8 10.228-22.8 22.8 0 12.572 10.228 22.8 22.8 22.8 12.572 0 22.8-10.228 22.8-22.8 0-12.572-10.228-22.8-22.8-22.8z"/><path fill="#FFF" d="M28 51c.27-.356 3.31-8.218 8.421-8.004C41.026 43.19 43.65 50.537 44 51H28z"/><g fill="none" stroke="#000" stroke-miterlimit="10" stroke-width="2"><circle cx="36" cy="36" r="23"/><path stroke-linecap="round" stroke-linejoin="round" d="M44.536 21.439l6.385 3.277m-24-3.277l-6.385 3.277M24 28l7 4-7 4m24-8l-7 4 7 4M28 51c.27-.356 1-8 8.421-8.004C43 42.993 43.65 50.537 44 51H28z"/></g></svg>
